src/icons/IconIntroduction/IconIntroduction_size_m.svg

<svg viewBox="0 0 24 24" xmlns="http://www.w3.org/2000/svg">
  <path d="M22 2h-2v20h2V2zM8.59 5.41L10 4l8 8-8 8-1.41-1.41L14.17 13H2v-2h12.17L8.59 5.41z" />
</svg>

<svg viewBox="0 0 24 24" xmlns="http://www.w3.org/2000/svg">
  <path d="M22 2H20V22H22V2Z" />
  <path d="M8.59 5.41L10 4L18 12L10 20L8.59 18.59L14.17 13H2V11H14.17L8.59 5.41Z" />
</svg>
